assets/Woman police officer/Light/Flat/woman_police_officer_flat_light.svg

<svg width="32" height="32" viewBox="0 0 32 32" fill="none" xmlns="http://www.w3.org/2000/svg">
<path d="M24.1086 14.6555C24.3394 14.1632 24.4799 13.6206 24.4799 13.0379C24.4799 12.2743 24.2491 11.571 23.8577 10.9782C23.4663 10.3854 23.2556 9.69215 23.2656 8.96874V8.9587C23.2656 6.899 21.5998 5.23116 19.5425 5.23116C19.3418 5.23116 19.1511 5.14073 19.0307 4.96993C18.3583 4.02548 17.2544 3.4126 16 3.4126C14.7556 3.4126 13.6417 4.02548 12.9693 4.96993C12.8388 5.13068 12.6482 5.23116 12.4374 5.23116C10.3802 5.23116 8.71429 6.899 8.71429 8.9587V8.96874C8.71429 9.6821 8.51358 10.3754 8.1222 10.9782C7.73081 11.571 7.5 12.2743 7.5 13.0379C7.5 13.6206 7.63046 14.1632 7.87131 14.6555C7.95159 14.8163 7.95159 15.0072 7.87131 15.1679C7.6405 15.6502 7.51004 16.1927 7.51004 16.7654C7.51004 18.7749 9.13577 20.4126 11.1529 20.4126H20.8571C22.8642 20.4126 24.5 18.7849 24.5 16.7654C24.5 16.1927 24.3695 15.6502 24.1387 15.1679C24.0283 15.0072 24.0283 14.8163 24.1086 14.6555Z" fill="#212121"/>
<path d="M24.3215 29.9997L25.7415 25.9622L24.3215 21.7484C22.1215 19.7131 19.1915 18.5 16.0515 18.5C12.8915 18.5 9.94146 19.7232 7.74146 21.7885L6.74146 25.9622L7.74146 29.9997H24.3215Z" fill="#00A6ED"/>
<path d="M16.6077 24.6224L18.0007 22L16 21.5L14.0007 22L15.3937 24.6224L14.2395 30H17.6127L16.6077 24.6224Z" fill="#0074BA"/>
<path d="M15.9907 21.8079L14.1748 23.3993C13.9327 23.6122 13.5788 23.4703 13.5136 23.1358L12.75 18.9C12.75 18.9 14 18 16 18C18 18 19.25 18.9 19.25 18.9L18.4864 23.1358C18.4212 23.4703 18.0673 23.6122 17.8252 23.3993L15.9907 21.8079Z" fill="#50E2FF"/>
<path d="M27.5852 27.0637C27.8829 28.0262 28.1012 29.0088 28.25 30.0013H24.2614V21.75C25.7794 23.1637 26.9403 24.9783 27.5852 27.0637Z" fill="#0084CE"/>
<path d="M7.73861 21.7901V30.0014H3.75C3.89957 29.0188 4.12892 28.0563 4.42806 27.1039L4.45798 27.0136C5.10613 24.9684 6.25285 23.1837 7.73861 21.7901Z" fill="#0084CE"/>
<path d="M13.5 18.5H18.5V19C18.5 20.3807 17.3807 21.5 16 21.5C14.6193 21.5 13.5 20.3807 13.5 19V18.5Z" fill="#F4C6AD"/>
<path d="M12.6957 12.3622C12.6957 13.384 11.8684 14.2123 10.8479 14.2123C9.82731 14.2123 9 13.384 9 12.3622C9 11.3405 9.82731 10.5122 10.8479 10.5122C11.8684 10.5122 12.6957 11.3405 12.6957 12.3622Z" fill="#F4C6AD"/>
<path d="M23.1226 12.3622C23.1226 13.384 22.2953 14.2123 21.2747 14.2123C20.2542 14.2123 19.4269 13.384 19.4269 12.3622C19.4269 11.3405 20.2542 10.5122 21.2747 10.5122C22.2953 10.5122 23.1226 11.3405 23.1226 12.3622Z" fill="#F4C6AD"/>
<path d="M20.4468 9.00503H16.8541C15.429 9.00503 14.1044 8.30172 13.2915 7.12619C13.161 6.93529 12.86 6.96543 12.7697 7.18647L12.6894 7.39747C12.4285 8.0204 11.9468 8.51272 11.3547 8.77394C11.3145 8.79404 11.2744 8.81413 11.2342 8.82418C10.9733 8.9548 10.3511 9.37678 10.3311 10.4418L10.4816 14.0287C10.612 17.2036 13.0607 19.3336 16.0211 19.3336C18.9916 19.3336 21.4302 17.2036 21.5607 14.0287L21.7012 10.6226C21.7012 9.10551 20.6475 9.00503 20.4468 9.00503Z" fill="#FFD7C2"/>
<path d="M13.0295 11.0547C13.6617 11.0547 14.1835 11.4968 14.5047 11.9891C14.1958 12.0855 13.895 12.1722 13.5964 12.2583C13.1479 12.3876 12.7045 12.5155 12.2467 12.6723L11.7048 12.18C11.484 11.979 11.5041 11.6173 11.7449 11.4465C12.1062 11.1953 12.5779 11.0547 13.0295 11.0547Z" fill="black"/>
<path d="M18.9304 11.0547C18.2982 11.0547 17.7763 11.4968 17.4552 11.9891C17.7641 12.0855 18.0649 12.1722 18.3635 12.2583C18.812 12.3876 19.2553 12.5155 19.7131 12.6723L20.2551 12.18C20.4758 11.979 20.4558 11.6173 20.2149 11.4465C19.8536 11.1953 19.382 11.0547 18.9304 11.0547Z" fill="black"/>
<path d="M11.7048 12.3612C11.8754 11.6779 12.4876 11.1655 13.2302 11.1655C13.9929 11.1655 14.6351 11.7181 14.7857 12.4415C14.8158 12.5922 14.6853 12.743 14.5247 12.743H12.0059C11.8051 12.743 11.6546 12.5521 11.7048 12.3612Z" fill="white"/>
<path d="M20.265 12.3612C20.0944 11.6779 19.4823 11.1655 18.7396 11.1655C17.9669 11.1655 17.3347 11.7181 17.1841 12.4415C17.154 12.5922 17.2845 12.743 17.4451 12.743H19.964C20.1647 12.743 20.3152 12.5521 20.265 12.3612Z" fill="white"/>
<path d="M12.4574 12.4715C12.4574 11.9189 12.899 11.4668 13.4609 11.4668C14.0129 11.4668 14.4645 11.9189 14.4846 12.4715C14.4846 12.572 14.4645 12.6624 14.4444 12.7428H12.4975C12.4674 12.6524 12.4574 12.562 12.4574 12.4715Z" fill="#7D4533"/>
<path d="M19.5123 12.4715C19.5123 11.9189 19.0708 11.4668 18.5088 11.4668C17.9468 11.4668 17.4952 11.9189 17.4852 12.4715C17.4852 12.572 17.5053 12.6624 17.5253 12.7428H19.4722C19.5023 12.6524 19.5123 12.562 19.5123 12.4715Z" fill="#7D4533"/>
<path d="M13.4611 11.9087C13.7722 11.9087 14.0331 12.1599 14.0331 12.4814C14.0331 12.5718 14.013 12.6622 13.9829 12.7527H12.9593C12.9091 12.6723 12.889 12.5819 12.889 12.4814C12.889 12.1699 13.1399 11.9087 13.4611 11.9087Z" fill="black"/>
<path d="M18.4988 11.9087C18.1877 11.9087 17.9268 12.1599 17.9268 12.4814C17.9268 12.5492 17.9437 12.617 17.9606 12.6848C17.9663 12.7074 17.9719 12.7301 17.9769 12.7527H19.0005C19.0507 12.6723 19.0708 12.5819 19.0708 12.4814C19.0708 12.1699 18.8199 11.9087 18.4988 11.9087Z" fill="black"/>
<path d="M13.2905 12.0798C13.2905 12.1797 13.2096 12.2606 13.1098 12.2606C13.0101 12.2606 12.9292 12.1797 12.9292 12.0798C12.9292 11.9799 13.0101 11.8989 13.1098 11.8989C13.2096 11.8989 13.2905 11.9799 13.2905 12.0798Z" fill="white"/>
<path d="M18.3383 12.0798C18.3383 12.1797 18.2574 12.2606 18.1577 12.2606C18.0579 12.2606 17.977 12.1797 17.977 12.0798C17.977 11.9799 18.0579 11.8989 18.1577 11.8989C18.2574 11.8989 18.3383 11.9799 18.3383 12.0798Z" fill="white"/>
<path d="M23.1359 4.01556L18.2095 2.35827C16.7934 1.88058 15.2676 1.88058 13.8515 2.35827L8.87519 4.01556C8.04747 4.28853 7.57876 5.15617 7.80812 5.98481L8.44637 8.26603C8.48626 8.40251 8.6159 8.5 8.76549 8.5H23.2257C23.3753 8.5 23.5049 8.40251 23.5448 8.26603L24.1831 5.98481C24.4324 5.15617 23.9637 4.29828 23.1359 4.01556Z" fill="#00A6ED"/>
<path d="M22.15 8.80743C18.31 7.81743 14.3 7.81743 10.46 8.79743C10.04 8.90743 9.60997 8.65743 9.48997 8.24743C9.35997 7.80743 9.61997 7.34743 10.06 7.23743C14.16 6.18743 18.44 6.18743 22.54 7.24743C22.98 7.35743 23.24 7.81743 23.12 8.25743C23 8.66743 22.57 8.91743 22.15 8.80743Z" fill="#50E2FF"/>
<path d="M9.79004 8.68711C10.58 10.0571 12.06 10.9771 13.76 10.9771H18.82C20.52 10.9771 22 10.0571 22.79 8.68711C18.55 7.44711 14.05 7.44711 9.81004 8.67711L9.79004 8.68711Z" fill="#321B41"/>
<path d="M16.0062 16.221C15.3773 16.221 14.7833 16.0618 14.2826 15.78C14.1079 15.682 13.9332 15.8903 14.038 16.0618C14.4573 16.7355 15.1793 17.1887 16.0062 17.1887C16.8331 17.1887 17.5551 16.7355 17.9744 16.0618C18.0792 15.8903 17.8929 15.6943 17.7298 15.78C17.2174 16.0618 16.6351 16.221 16.0062 16.221Z" fill="#990838"/>
<path d="M15.6105 12.3026L15.0442 14.2966C14.9266 14.7047 15.2045 15.1245 15.5998 15.1245H16.4333C16.8287 15.1245 17.1066 14.7047 16.989 14.2966L16.4227 12.3026C16.3051 11.8594 15.7388 11.8594 15.6105 12.3026Z" fill="#E5AF93"/>
<path d="M17.25 3.66299C17.25 3.44877 16.9483 3.37088 16.819 3.54614C16.722 3.67273 16.5172 3.67273 16.431 3.54614L16.194 3.22482C16.097 3.09824 15.8922 3.09824 15.806 3.22482L15.569 3.55588C15.472 3.68246 15.2672 3.68246 15.181 3.55588C15.0517 3.38061 14.75 3.45851 14.75 3.67273V4.49064C14.75 5.12355 15.3103 5.62988 16.0108 5.62988C16.7112 5.62988 17.25 5.12355 17.25 4.49064V3.66299Z" fill="#FCD53F"/>
<path d="M20.4903 28.0247C19.6636 28.0247 19 27.4399 19 26.7112V25.0909C19 24.7745 19.2937 24.5156 19.6527 24.5156H21.3388C21.6978 24.5156 21.9915 24.7745 21.9915 25.0909V26.7016C21.9806 27.4303 21.3061 28.0247 20.4903 28.0247Z" fill="#FCD53F"/>
<path d="M12.8483 26H9.1403C9.06013 26 9 26.0519 9 26.121V26.8816C9 26.9507 9.06013 27.0026 9.1403 27.0026H12.8483C12.9285 27.0026 12.9886 26.9507 12.9886 26.8816V26.121C12.9886 26.0519 12.9285 26 12.8483 26Z" fill="#FCD53F"/>
</svg>

<svg xmlns="http://www.w3.org/2000/svg" width="32" height="32" fill="none"><path fill="#212121" d="M24.109 14.655a3.79 3.79 0 0 0 .37-1.617c0-.764-.23-1.467-.621-2.06a3.546 3.546 0 0 1-.592-2.01v-.01a3.724 3.724 0 0 0-3.723-3.727c-.201 0-.392-.09-.512-.261A3.705 3.705 0 0 0 16 3.413a3.72 3.72 0 0 0-3.03 1.557.685.685 0 0 1-.533.261A3.724 3.724 0 0 0 8.714 8.96v.01c0 .713-.2 1.406-.592 2.01a3.717 3.717 0 0 0-.25 3.677c.08.16.08.351 0 .512a3.694 3.694 0 0 0-.362 1.597 3.645 3.645 0 0 0 3.643 3.648h9.704a3.645 3.645 0 0 0 3.643-3.648c0-.572-.13-1.115-.361-1.597a.497.497 0 0 1-.03-.512Z"/><path fill="#00A6ED" d="m24.322 30 1.42-4.038-1.42-4.214a12.176 12.176 0 0 0-8.27-3.248c-3.16 0-6.11 1.223-8.31 3.288l-1 4.174 1 4.038h16.58Z"/><path fill="#0074BA" d="M16.608 24.622 18 22 16 21.5l-2 .5 1.394 2.622L14.239 30h3.374l-1.005-5.378Z"/><path fill="#50E2FF" d="m15.99 21.808-1.815 1.591c-.242.213-.596.071-.661-.263L12.75 18.9S14 18 16 18s3.25.9 3.25.9l-.764 4.236c-.065.334-.419.476-.66.263l-1.835-1.591Z"/><path fill="#0084CE" d="M27.585 27.064c.298.962.516 1.945.665 2.937h-3.989V21.75a12.146 12.146 0 0 1 3.324 5.314ZM7.739 21.79v8.211H3.75c.15-.982.379-1.945.678-2.897l.03-.09a12.207 12.207 0 0 1 3.28-5.224Z"/><path fill="#F4C6AD" d="M13.5 18.5h5v.5a2.5 2.5 0 0 1-5 0v-.5ZM12.696 12.362a1.849 1.849 0 1 1-1.848-1.85c1.02 0 1.848.829 1.848 1.85ZM23.123 12.362a1.849 1.849 0 1 1-1.848-1.85c1.02 0 1.848.829 1.848 1.85Z"/><path fill="#FFD7C2" d="M20.447 9.005h-3.593a4.328 4.328 0 0 1-3.563-1.879.3.3 0 0 0-.521.06l-.08.211a2.594 2.594 0 0 1-1.335 1.377c-.04.02-.08.04-.12.05-.262.13-.884.553-.904 1.618l.15 3.587c.131 3.175 2.58 5.305 5.54 5.305 2.97 0 5.41-2.13 5.54-5.305l.14-3.406c0-1.517-1.053-1.618-1.254-1.618Z"/><path fill="#000" d="M13.03 11.055c.632 0 1.154.442 1.475.934-.31.096-.61.183-.909.27-.448.129-.892.256-1.35.413l-.541-.492a.476.476 0 0 1 .04-.733 2.305 2.305 0 0 1 1.285-.392ZM18.93 11.055c-.632 0-1.154.442-1.475.934.31.096.61.183.909.27.448.129.891.256 1.35.413l.541-.492a.476.476 0 0 0-.04-.733 2.305 2.305 0 0 0-1.285-.392Z"/><path fill="#fff" d="M11.705 12.361a1.573 1.573 0 0 1 1.525-1.196c.763 0 1.405.553 1.556 1.277.03.15-.1.301-.261.301h-2.52a.31.31 0 0 1-.3-.382ZM20.265 12.361a1.573 1.573 0 0 0-1.525-1.196c-.773 0-1.405.553-1.556 1.277-.03.15.1.301.261.301h2.519c.2 0 .351-.19.301-.382Z"/><path fill="#7D4533" d="M12.457 12.472a1 1 0 0 1 1.004-1.005c.552 0 1.003.452 1.024 1.005 0 .1-.02.19-.04.27h-1.947a.847.847 0 0 1-.04-.27ZM19.512 12.472a1 1 0 0 0-1.003-1.005c-.562 0-1.014.452-1.024 1.005 0 .1.02.19.04.27h1.947c.03-.09.04-.18.04-.27Z"/><path fill="#000" d="M13.461 11.909c.311 0 .572.25.572.572 0 .09-.02.181-.05.272h-1.024a.572.572 0 0 1 .502-.844ZM18.499 11.909a.572.572 0 0 0-.572.572c0 .068.017.136.034.204l.016.068H19a.572.572 0 0 0-.502-.844Z"/><path fill="#fff" d="M13.29 12.08a.18.18 0 1 1-.36 0 .18.18 0 0 1 .36 0ZM18.338 12.08a.18.18 0 1 1-.361 0 .18.18 0 0 1 .361 0Z"/><path fill="#00A6ED" d="m23.136 4.016-4.927-1.658a6.806 6.806 0 0 0-4.357 0L8.874 4.016a1.624 1.624 0 0 0-1.067 1.969l.638 2.281c.04.137.17.234.32.234h14.46c.15 0 .279-.097.319-.234l.638-2.281c.25-.829-.22-1.687-1.047-1.97Z"/><path fill="#50E2FF" d="M22.15 8.807c-3.84-.99-7.85-.99-11.69-.01a.803.803 0 0 1-.97-.55c-.13-.44.13-.9.57-1.01a25 25 0 0 1 12.48.01c.44.11.7.57.58 1.01-.12.41-.55.66-.97.55Z"/><path fill="#321B41" d="M9.79 8.687a4.572 4.572 0 0 0 3.97 2.29h5.06c1.7 0 3.18-.92 3.97-2.29a23.2 23.2 0 0 0-12.98-.01l-.02.01Z"/><path fill="#990838" d="M16.006 16.221c-.629 0-1.223-.16-1.723-.441-.175-.098-.35.11-.245.282.42.673 1.141 1.127 1.968 1.127s1.55-.454 1.968-1.127c.105-.172-.081-.368-.244-.282a3.55 3.55 0 0 1-1.724.441Z"/><path fill="#E5AF93" d="m15.61 12.303-.566 1.994c-.117.408.16.827.556.827h.833c.396 0 .674-.42.556-.827l-.566-1.994c-.118-.444-.684-.444-.812 0Z"/><path fill="#FCD53F" d="M17.25 3.663c0-.214-.302-.292-.431-.117-.097.127-.302.127-.388 0l-.237-.321c-.097-.127-.302-.127-.388 0l-.237.33c-.097.127-.302.127-.388 0-.13-.174-.431-.096-.431.118v.818c0 .633.56 1.139 1.26 1.139.701 0 1.24-.506 1.24-1.14v-.827ZM20.49 28.025c-.826 0-1.49-.585-1.49-1.314v-1.62c0-.317.294-.575.653-.575h1.686c.359 0 .652.259.652.575v1.61c-.01.73-.685 1.324-1.5 1.324ZM12.848 26H9.14c-.08 0-.14.052-.14.121v.76c0 .07.06.122.14.122h3.708c.08 0 .14-.052.14-.121v-.761c0-.07-.06-.121-.14-.121Z"/></svg>
